images/50507084.svg

<?xml version="1.0" encoding="UTF-8"?>
<svg xmlns="http://www.w3.org/2000/svg" xmlns:xlink="http://www.w3.org/1999/xlink" width="300pt" height="300pt" viewBox="0 0 300 300" version="1.1">
<defs>
<g>
<symbol overflow="visible" id="glyph0-0">
<path style="stroke:none;" d="M 0.640625 2.296875 L 0.640625 -9.171875 L 7.140625 -9.171875 L 7.140625 2.296875 Z M 1.375 1.578125 L 6.421875 1.578125 L 6.421875 -8.4375 L 1.375 -8.4375 Z M 1.375 1.578125 "/>
</symbol>
<symbol overflow="visible" id="glyph0-1">
<path style="stroke:none;" d="M 1.28125 -9.484375 L 3 -9.484375 L 7.203125 -1.546875 L 7.203125 -9.484375 L 8.453125 -9.484375 L 8.453125 0 L 6.71875 0 L 2.515625 -7.921875 L 2.515625 0 L 1.28125 0 Z M 1.28125 -9.484375 "/>
</symbol>
<symbol overflow="visible" id="glyph0-2">
<path style="stroke:none;" d="M 1.28125 -9.484375 L 2.5625 -9.484375 L 2.5625 -5.59375 L 7.21875 -5.59375 L 7.21875 -9.484375 L 8.5 -9.484375 L 8.5 0 L 7.21875 0 L 7.21875 -4.515625 L 2.5625 -4.515625 L 2.5625 0 L 1.28125 0 Z M 1.28125 -9.484375 "/>
</symbol>
</g>
</defs>
<g id="surface20725">
<rect x="0" y="0" width="300" height="300" style="fill:rgb(100%,100%,100%);fill-opacity:1;stroke:none;"/>
<path style="fill:none;stroke-width:1.2;stroke-linecap:butt;stroke-linejoin:miter;stroke:rgb(0%,0%,100%);stroke-opacity:1;stroke-miterlimit:10;" d="M 89.351562 178.472656 L 99.605469 191.949219 "/>
<path style="fill:none;stroke-width:1.2;stroke-linecap:butt;stroke-linejoin:miter;stroke:rgb(0%,0%,0%);stroke-opacity:1;stroke-miterlimit:10;" d="M 99.605469 191.949219 L 109.863281 205.425781 "/>
<path style="fill:none;stroke-width:1.2;stroke-linecap:butt;stroke-linejoin:miter;stroke:rgb(0%,0%,100%);stroke-opacity:1;stroke-miterlimit:10;" d="M 85.0625 185.992188 L 93.265625 196.773438 "/>
<path style="fill:none;stroke-width:1.2;stroke-linecap:butt;stroke-linejoin:miter;stroke:rgb(0%,0%,0%);stroke-opacity:1;stroke-miterlimit:10;" d="M 93.265625 196.773438 L 101.46875 207.554688 "/>
<path style="fill:none;stroke-width:1.2;stroke-linecap:butt;stroke-linejoin:miter;stroke:rgb(0%,0%,0%);stroke-opacity:1;stroke-miterlimit:10;" d="M 55.757812 182.757812 L 72.554688 180.613281 "/>
<path style="fill:none;stroke-width:1.2;stroke-linecap:butt;stroke-linejoin:miter;stroke:rgb(0%,0%,100%);stroke-opacity:1;stroke-miterlimit:10;" d="M 72.554688 180.613281 L 89.351562 178.472656 "/>
<path style=" stroke:none;fill-rule:nonzero;fill:rgb(100%,100%,100%);fill-opacity:1;" d="M 84.351562 170.472656 L 94.351562 170.472656 L 94.351562 186.472656 L 84.351562 186.472656 Z M 84.351562 170.472656 "/>
<g style="fill:rgb(0%,0%,100%);fill-opacity:1;">
  <use xlink:href="#glyph0-1" x="84.351562" y="182.848633"/>
</g>
<path style="fill:none;stroke-width:1.2;stroke-linecap:butt;stroke-linejoin:miter;stroke:rgb(0%,0%,0%);stroke-opacity:1;stroke-miterlimit:10;" d="M 109.863281 205.425781 L 96.773438 236.660156 "/>
<path style="fill:none;stroke-width:1.2;stroke-linecap:butt;stroke-linejoin:miter;stroke:rgb(0%,0%,0%);stroke-opacity:1;stroke-miterlimit:10;" d="M 109.863281 205.425781 L 143.457031 201.140625 "/>
<path style="fill:none;stroke-width:1.2;stroke-linecap:butt;stroke-linejoin:miter;stroke:rgb(0%,0%,0%);stroke-opacity:1;stroke-miterlimit:10;" d="M 96.773438 236.660156 L 63.179688 240.945312 "/>
<path style="fill:none;stroke-width:1.2;stroke-linecap:butt;stroke-linejoin:miter;stroke:rgb(0%,0%,0%);stroke-opacity:1;stroke-miterlimit:10;" d="M 92.40625 229.183594 L 65.53125 232.613281 "/>
<path style="fill:none;stroke-width:1.2;stroke-linecap:butt;stroke-linejoin:miter;stroke:rgb(0%,0%,0%);stroke-opacity:1;stroke-miterlimit:10;" d="M 63.179688 240.945312 L 42.671875 213.992188 "/>
<path style="fill:none;stroke-width:1.2;stroke-linecap:butt;stroke-linejoin:miter;stroke:rgb(0%,0%,0%);stroke-opacity:1;stroke-miterlimit:10;" d="M 42.671875 213.992188 L 55.757812 182.757812 "/>
<path style="fill:none;stroke-width:1.2;stroke-linecap:butt;stroke-linejoin:miter;stroke:rgb(0%,0%,0%);stroke-opacity:1;stroke-miterlimit:10;" d="M 51.328125 213.949219 L 61.800781 188.960938 "/>
<path style="fill:none;stroke-width:1.2;stroke-linecap:butt;stroke-linejoin:miter;stroke:rgb(0%,0%,0%);stroke-opacity:1;stroke-miterlimit:10;" d="M 55.757812 182.757812 L 35.25 155.804688 "/>
<path style="fill:none;stroke-width:1.2;stroke-linecap:butt;stroke-linejoin:miter;stroke:rgb(0%,0%,0%);stroke-opacity:1;stroke-miterlimit:10;" d="M 143.457031 201.140625 L 150 185.519531 "/>
<path style="fill:none;stroke-width:1.2;stroke-linecap:butt;stroke-linejoin:miter;stroke:rgb(0%,0%,100%);stroke-opacity:1;stroke-miterlimit:10;" d="M 150 185.519531 L 156.542969 169.902344 "/>
<path style="fill:none;stroke-width:1.2;stroke-linecap:butt;stroke-linejoin:miter;stroke:rgb(0%,0%,0%);stroke-opacity:1;stroke-miterlimit:10;" d="M 152.113281 201.09375 L 157.351562 188.601562 "/>
<path style="fill:none;stroke-width:1.2;stroke-linecap:butt;stroke-linejoin:miter;stroke:rgb(0%,0%,100%);stroke-opacity:1;stroke-miterlimit:10;" d="M 157.351562 188.601562 L 162.585938 176.105469 "/>
<path style="fill:none;stroke-width:1.2;stroke-linecap:butt;stroke-linejoin:miter;stroke:rgb(0%,0%,100%);stroke-opacity:1;stroke-miterlimit:10;" d="M 163.964844 228.089844 L 153.710938 214.617188 "/>
<path style="fill:none;stroke-width:1.2;stroke-linecap:butt;stroke-linejoin:miter;stroke:rgb(0%,0%,0%);stroke-opacity:1;stroke-miterlimit:10;" d="M 153.710938 214.617188 L 143.457031 201.140625 "/>
<path style="fill:none;stroke-width:1.2;stroke-linecap:butt;stroke-linejoin:miter;stroke:rgb(0%,0%,100%);stroke-opacity:1;stroke-miterlimit:10;" d="M 156.542969 169.902344 L 173.339844 167.761719 "/>
<path style="fill:none;stroke-width:1.2;stroke-linecap:butt;stroke-linejoin:miter;stroke:rgb(0%,0%,0%);stroke-opacity:1;stroke-miterlimit:10;" d="M 173.339844 167.761719 L 190.136719 165.617188 "/>
<path style=" stroke:none;fill-rule:nonzero;fill:rgb(100%,100%,100%);fill-opacity:1;" d="M 151.542969 161.902344 L 161.542969 161.902344 L 161.542969 177.902344 L 151.542969 177.902344 Z M 151.542969 161.902344 "/>
<g style="fill:rgb(0%,0%,100%);fill-opacity:1;">
  <use xlink:href="#glyph0-1" x="151.542969" y="174.27832"/>
</g>
<path style="fill:none;stroke-width:1.2;stroke-linecap:butt;stroke-linejoin:miter;stroke:rgb(0%,0%,0%);stroke-opacity:1;stroke-miterlimit:10;" d="M 190.136719 165.617188 L 196.683594 150 "/>
<path style="fill:none;stroke-width:1.2;stroke-linecap:butt;stroke-linejoin:miter;stroke:rgb(0%,0%,100%);stroke-opacity:1;stroke-miterlimit:10;" d="M 196.683594 150 L 203.226562 134.382812 "/>
<path style="fill:none;stroke-width:1.2;stroke-linecap:butt;stroke-linejoin:miter;stroke:rgb(0%,0%,0%);stroke-opacity:1;stroke-miterlimit:10;" d="M 190.136719 165.617188 L 210.648438 192.570312 "/>
<path style="fill:none;stroke-width:1.2;stroke-linecap:butt;stroke-linejoin:miter;stroke:rgb(0%,0%,0%);stroke-opacity:1;stroke-miterlimit:10;" d="M 185.847656 173.140625 L 202.253906 194.699219 "/>
<path style="fill:none;stroke-width:1.2;stroke-linecap:butt;stroke-linejoin:miter;stroke:rgb(0%,0%,100%);stroke-opacity:1;stroke-miterlimit:10;" d="M 203.226562 134.382812 L 192.972656 120.90625 "/>
<path style="fill:none;stroke-width:1.2;stroke-linecap:butt;stroke-linejoin:miter;stroke:rgb(0%,0%,0%);stroke-opacity:1;stroke-miterlimit:10;" d="M 192.972656 120.90625 L 182.71875 107.429688 "/>
<path style=" stroke:none;fill-rule:nonzero;fill:rgb(100%,100%,100%);fill-opacity:1;" d="M 193.226562 126.382812 L 213.226562 126.382812 L 213.226562 142.382812 L 193.226562 142.382812 Z M 193.226562 126.382812 "/>
<g style="fill:rgb(0%,0%,100%);fill-opacity:1;">
  <use xlink:href="#glyph0-1" x="193.226562" y="138.758789"/>
  <use xlink:href="#glyph0-2" x="203.196289" y="138.758789"/>
</g>
<path style="fill:none;stroke-width:1.2;stroke-linecap:butt;stroke-linejoin:miter;stroke:rgb(0%,0%,0%);stroke-opacity:1;stroke-miterlimit:10;" d="M 182.71875 107.429688 L 189.261719 91.8125 "/>
<path style="fill:none;stroke-width:1.2;stroke-linecap:butt;stroke-linejoin:miter;stroke:rgb(0%,0%,100%);stroke-opacity:1;stroke-miterlimit:10;" d="M 189.261719 91.8125 L 195.804688 76.191406 "/>
<path style="fill:none;stroke-width:1.2;stroke-linecap:butt;stroke-linejoin:miter;stroke:rgb(0%,0%,0%);stroke-opacity:1;stroke-miterlimit:10;" d="M 176.675781 101.226562 L 181.910156 88.730469 "/>
<path style="fill:none;stroke-width:1.2;stroke-linecap:butt;stroke-linejoin:miter;stroke:rgb(0%,0%,100%);stroke-opacity:1;stroke-miterlimit:10;" d="M 181.910156 88.730469 L 187.144531 76.238281 "/>
<path style="fill:none;stroke-width:1.2;stroke-linecap:butt;stroke-linejoin:miter;stroke:rgb(0%,0%,0%);stroke-opacity:1;stroke-miterlimit:10;" d="M 149.121094 111.714844 L 182.71875 107.429688 "/>
<path style="fill:none;stroke-width:1.2;stroke-linecap:butt;stroke-linejoin:miter;stroke:rgb(0%,0%,100%);stroke-opacity:1;stroke-miterlimit:10;" d="M 195.804688 76.191406 L 185.550781 62.71875 "/>
<path style="fill:none;stroke-width:1.2;stroke-linecap:butt;stroke-linejoin:miter;stroke:rgb(0%,0%,0%);stroke-opacity:1;stroke-miterlimit:10;" d="M 185.550781 62.71875 L 175.296875 49.242188 "/>
<path style=" stroke:none;fill-rule:nonzero;fill:rgb(100%,100%,100%);fill-opacity:1;" d="M 190.804688 68.191406 L 200.804688 68.191406 L 200.804688 84.191406 L 190.804688 84.191406 Z M 190.804688 68.191406 "/>
<g style="fill:rgb(0%,0%,100%);fill-opacity:1;">
  <use xlink:href="#glyph0-1" x="190.804688" y="80.567383"/>
</g>
<path style="fill:none;stroke-width:1.2;stroke-linecap:butt;stroke-linejoin:miter;stroke:rgb(0%,0%,0%);stroke-opacity:1;stroke-miterlimit:10;" d="M 175.296875 49.242188 L 158.5 51.382812 "/>
<path style="fill:none;stroke-width:1.2;stroke-linecap:butt;stroke-linejoin:miter;stroke:rgb(0%,0%,100%);stroke-opacity:1;stroke-miterlimit:10;" d="M 158.5 51.382812 L 141.703125 53.527344 "/>
<path style="fill:none;stroke-width:1.2;stroke-linecap:butt;stroke-linejoin:miter;stroke:rgb(0%,0%,0%);stroke-opacity:1;stroke-miterlimit:10;" d="M 172.945312 57.574219 L 159.507812 59.289062 "/>
<path style="fill:none;stroke-width:1.2;stroke-linecap:butt;stroke-linejoin:miter;stroke:rgb(0%,0%,100%);stroke-opacity:1;stroke-miterlimit:10;" d="M 159.507812 59.289062 L 146.070312 61.003906 "/>
<path style="fill:none;stroke-width:1.2;stroke-linecap:butt;stroke-linejoin:miter;stroke:rgb(0%,0%,100%);stroke-opacity:1;stroke-miterlimit:10;" d="M 141.703125 53.527344 L 135.15625 69.144531 "/>
<path style="fill:none;stroke-width:1.2;stroke-linecap:butt;stroke-linejoin:miter;stroke:rgb(0%,0%,0%);stroke-opacity:1;stroke-miterlimit:10;" d="M 135.15625 69.144531 L 128.613281 84.761719 "/>
<path style=" stroke:none;fill-rule:nonzero;fill:rgb(100%,100%,100%);fill-opacity:1;" d="M 136.703125 45.527344 L 146.703125 45.527344 L 146.703125 61.527344 L 136.703125 61.527344 Z M 136.703125 45.527344 "/>
<g style="fill:rgb(0%,0%,100%);fill-opacity:1;">
  <use xlink:href="#glyph0-1" x="136.703125" y="57.90332"/>
</g>
<path style="fill:none;stroke-width:1.2;stroke-linecap:butt;stroke-linejoin:miter;stroke:rgb(0%,0%,0%);stroke-opacity:1;stroke-miterlimit:10;" d="M 128.613281 84.761719 L 149.121094 111.714844 "/>
<path style="fill:none;stroke-width:1.2;stroke-linecap:butt;stroke-linejoin:miter;stroke:rgb(0%,0%,0%);stroke-opacity:1;stroke-miterlimit:10;" d="M 137.007812 82.632812 L 153.414062 104.195312 "/>
<path style="fill:none;stroke-width:1.2;stroke-linecap:butt;stroke-linejoin:miter;stroke:rgb(0%,0%,0%);stroke-opacity:1;stroke-miterlimit:10;" d="M 210.648438 192.570312 L 197.558594 223.808594 "/>
<path style="fill:none;stroke-width:1.2;stroke-linecap:butt;stroke-linejoin:miter;stroke:rgb(0%,0%,0%);stroke-opacity:1;stroke-miterlimit:10;" d="M 244.242188 188.285156 L 210.648438 192.570312 "/>
<path style="fill:none;stroke-width:1.2;stroke-linecap:butt;stroke-linejoin:miter;stroke:rgb(0%,0%,0%);stroke-opacity:1;stroke-miterlimit:10;" d="M 197.558594 223.808594 L 180.761719 225.949219 "/>
<path style="fill:none;stroke-width:1.2;stroke-linecap:butt;stroke-linejoin:miter;stroke:rgb(0%,0%,100%);stroke-opacity:1;stroke-miterlimit:10;" d="M 180.761719 225.949219 L 163.964844 228.089844 "/>
<path style="fill:none;stroke-width:1.2;stroke-linecap:butt;stroke-linejoin:miter;stroke:rgb(0%,0%,0%);stroke-opacity:1;stroke-miterlimit:10;" d="M 193.191406 216.332031 L 179.753906 218.042969 "/>
<path style="fill:none;stroke-width:1.2;stroke-linecap:butt;stroke-linejoin:miter;stroke:rgb(0%,0%,100%);stroke-opacity:1;stroke-miterlimit:10;" d="M 179.753906 218.042969 L 166.316406 219.757812 "/>
<path style="fill:none;stroke-width:1.2;stroke-linecap:butt;stroke-linejoin:miter;stroke:rgb(0%,0%,0%);stroke-opacity:1;stroke-miterlimit:10;" d="M 197.558594 223.808594 L 218.066406 250.757812 "/>
<path style=" stroke:none;fill-rule:nonzero;fill:rgb(100%,100%,100%);fill-opacity:1;" d="M 158.964844 220.089844 L 168.964844 220.089844 L 168.964844 236.089844 L 158.964844 236.089844 Z M 158.964844 220.089844 "/>
<g style="fill:rgb(0%,0%,100%);fill-opacity:1;">
  <use xlink:href="#glyph0-1" x="158.964844" y="232.46582"/>
</g>
<path style="fill:none;stroke-width:1.2;stroke-linecap:butt;stroke-linejoin:miter;stroke:rgb(0%,0%,0%);stroke-opacity:1;stroke-miterlimit:10;" d="M 218.066406 250.757812 L 251.664062 246.472656 "/>
<path style="fill:none;stroke-width:1.2;stroke-linecap:butt;stroke-linejoin:miter;stroke:rgb(0%,0%,0%);stroke-opacity:1;stroke-miterlimit:10;" d="M 220.417969 242.425781 L 247.296875 238.996094 "/>
<path style="fill:none;stroke-width:1.2;stroke-linecap:butt;stroke-linejoin:miter;stroke:rgb(0%,0%,0%);stroke-opacity:1;stroke-miterlimit:10;" d="M 251.664062 246.472656 L 264.75 215.238281 "/>
<path style="fill:none;stroke-width:1.2;stroke-linecap:butt;stroke-linejoin:miter;stroke:rgb(0%,0%,0%);stroke-opacity:1;stroke-miterlimit:10;" d="M 264.75 215.238281 L 244.242188 188.285156 "/>
<path style="fill:none;stroke-width:1.2;stroke-linecap:butt;stroke-linejoin:miter;stroke:rgb(0%,0%,0%);stroke-opacity:1;stroke-miterlimit:10;" d="M 256.359375 217.367188 L 239.949219 195.804688 "/>
</g>
</svg>

<svg xmlns="http://www.w3.org/2000/svg" xmlns:xlink="http://www.w3.org/1999/xlink" width="300pt" height="300pt" viewBox="0 0 300 300"><defs><symbol overflow="visible"><path d="M.64 2.297v-11.47h6.5v11.47zm.735-.72h5.047V-8.436H1.375zm0 0"/></symbol><symbol overflow="visible" id="a"><path d="M1.28-9.484H3l4.203 7.937v-7.937h1.25V0H6.72L2.515-7.922V0H1.28zm0 0"/></symbol><symbol overflow="visible" id="b"><path d="M1.28-9.484h1.282v3.89H7.22v-3.89H8.5V0H7.22v-4.516H2.562V0H1.28zm0 0"/></symbol></defs><g><path fill="#fff" d="M0 0h300v300H0z"/><path d="M89.352 178.473l10.253 13.476" stroke-width="1.2" stroke="#00f" stroke-miterlimit="10" fill="none"/><path d="M99.605 191.95l10.258 13.476" stroke-width="1.2" stroke="#000" stroke-miterlimit="10" fill="none"/><path d="M85.063 185.992l8.203 10.78" stroke-width="1.2" stroke="#00f" stroke-miterlimit="10" fill="none"/><path d="M93.266 196.773l8.203 10.782M55.758 182.758l16.797-2.145" stroke-width="1.2" stroke="#000" stroke-miterlimit="10" fill="none"/><path d="M72.555 180.613l16.797-2.14" stroke-width="1.2" stroke="#00f" stroke-miterlimit="10" fill="none"/><path d="M84.352 170.473h10v16h-10zm0 0" fill="#fff"/><use xlink:href="#a" x="84.352" y="182.849" fill="#00f"/><path d="M109.863 205.426l-13.09 31.234M109.863 205.426l33.594-4.285M96.773 236.66l-33.593 4.285M92.406 229.184l-26.875 3.43M63.18 240.945l-20.508-26.953M42.672 213.992l13.086-31.234M51.328 213.95L61.8 188.96M55.758 182.758L35.25 155.805M143.457 201.14L150 185.52" stroke-width="1.2" stroke="#000" stroke-miterlimit="10" fill="none"/><path d="M150 185.52l6.543-15.618" stroke-width="1.2" stroke="#00f" stroke-miterlimit="10" fill="none"/><path d="M152.113 201.094l5.24-12.492" stroke-width="1.2" stroke="#000" stroke-miterlimit="10" fill="none"/><path d="M157.352 188.602l5.234-12.497M163.965 228.09l-10.254-13.473" stroke-width="1.2" stroke="#00f" stroke-miterlimit="10" fill="none"/><path d="M153.71 214.617l-10.253-13.476" stroke-width="1.2" stroke="#000" stroke-miterlimit="10" fill="none"/><path d="M156.543 169.902l16.797-2.14" stroke-width="1.2" stroke="#00f" stroke-miterlimit="10" fill="none"/><path d="M173.34 167.762l16.797-2.145" stroke-width="1.2" stroke="#000" stroke-miterlimit="10" fill="none"/><path d="M151.543 161.902h10v16h-10zm0 0" fill="#fff"/><use xlink:href="#a" x="151.543" y="174.278" fill="#00f"/><path d="M190.137 165.617L196.684 150" stroke-width="1.2" stroke="#000" stroke-miterlimit="10" fill="none"/><path d="M196.684 150l6.543-15.617" stroke-width="1.2" stroke="#00f" stroke-miterlimit="10" fill="none"/><path d="M190.137 165.617l20.51 26.953M185.848 173.14l16.406 21.56" stroke-width="1.2" stroke="#000" stroke-miterlimit="10" fill="none"/><path d="M203.227 134.383l-10.254-13.477" stroke-width="1.2" stroke="#00f" stroke-miterlimit="10" fill="none"/><path d="M192.973 120.906L182.72 107.43" stroke-width="1.2" stroke="#000" stroke-miterlimit="10" fill="none"/><path d="M193.227 126.383h20v16h-20zm0 0" fill="#fff"/><g fill="#00f"><use xlink:href="#a" x="193.227" y="138.759"/><use xlink:href="#b" x="203.196" y="138.759"/></g><path d="M182.72 107.43l6.542-15.618" stroke-width="1.2" stroke="#000" stroke-miterlimit="10" fill="none"/><path d="M189.262 91.813l6.543-15.622" stroke-width="1.2" stroke="#00f" stroke-miterlimit="10" fill="none"/><path d="M176.676 101.227l5.234-12.497" stroke-width="1.2" stroke="#000" stroke-miterlimit="10" fill="none"/><path d="M181.91 88.73l5.235-12.492" stroke-width="1.2" stroke="#00f" stroke-miterlimit="10" fill="none"/><path d="M149.12 111.715l33.6-4.285" stroke-width="1.2" stroke="#000" stroke-miterlimit="10" fill="none"/><path d="M195.805 76.19L185.55 62.72" stroke-width="1.2" stroke="#00f" stroke-miterlimit="10" fill="none"/><path d="M185.55 62.72L175.298 49.24" stroke-width="1.2" stroke="#000" stroke-miterlimit="10" fill="none"/><path d="M190.805 68.19h10v16h-10zm0 0" fill="#fff"/><use xlink:href="#a" x="190.805" y="80.567" fill="#00f"/><path d="M175.297 49.242l-16.797 2.14" stroke-width="1.2" stroke="#000" stroke-miterlimit="10" fill="none"/><path d="M158.5 51.383l-16.797 2.144" stroke-width="1.2" stroke="#00f" stroke-miterlimit="10" fill="none"/><path d="M172.945 57.574l-13.437 1.715" stroke-width="1.2" stroke="#000" stroke-miterlimit="10" fill="none"/><path d="M159.508 59.29l-13.438 1.714M141.703 53.527l-6.547 15.618" stroke-width="1.2" stroke="#00f" stroke-miterlimit="10" fill="none"/><path d="M135.156 69.145l-6.543 15.617" stroke-width="1.2" stroke="#000" stroke-miterlimit="10" fill="none"/><path d="M136.703 45.527h10v16h-10zm0 0" fill="#fff"/><use xlink:href="#a" x="136.703" y="57.903" fill="#00f"/><path d="M128.613 84.762l20.508 26.953M137.008 82.633l16.406 21.562M210.648 192.57l-13.09 31.24M244.242 188.285l-33.594 4.285M197.56 223.81l-16.798 2.14" stroke-width="1.2" stroke="#000" stroke-miterlimit="10" fill="none"/><path d="M180.762 225.95l-16.797 2.14" stroke-width="1.2" stroke="#00f" stroke-miterlimit="10" fill="none"/><path d="M193.19 216.332l-13.436 1.71" stroke-width="1.2" stroke="#000" stroke-miterlimit="10" fill="none"/><path d="M179.754 218.043l-13.438 1.715" stroke-width="1.2" stroke="#00f" stroke-miterlimit="10" fill="none"/><path d="M197.56 223.81l20.506 26.948" stroke-width="1.2" stroke="#000" stroke-miterlimit="10" fill="none"/><path d="M158.965 220.09h10v16h-10zm0 0" fill="#fff"/><use xlink:href="#a" x="158.965" y="232.466" fill="#00f"/><path d="M218.066 250.758l33.598-4.285M220.418 242.426l26.88-3.43M251.664 246.473l13.086-31.235M264.75 215.238l-20.508-26.953M256.36 217.367l-16.41-21.562" stroke-width="1.2" stroke="#000" stroke-miterlimit="10" fill="none"/></g></svg>
